!!!OTL: DER ALTE GOTT LEBT NOCH
!!!ARE: Europa, Mitteleuropa, Deutschland
!!!SCT: F0409
!!!YEM: Copyright 1995, estate of Helmut Schaffrath.
**kern
*ICvox
*Ivox
*M4/4
*k[]
*C:
{4c
=1
4A
4d
4c
4B
=2
2c
4r}
{4d
=3
4e
4e
8e
8g
8f
8e
=4
8d
8e
8d
8c
4B}
{8d
8e
=5
4f
4f
4e
4e
=6
2f}
{4.g
8f
=7
4e
4e
4d
4c
=8
8B
8c
8B
8A
4G}
{4G
=9
4.c
8c
4.d
8d
=10
2e
4r}
{4G
=11
4.c
8c
4.d
8d
=12
2e
4r}
{4e
=13
4f
4e
4d
4e
=14
2f}
{4e
4c
=15
2A
2d
=16
2c
2B
=17
2.c}
==
!!!AGN: Vaterlands -, Heimat - Lied, nationalistisch
!!!ONB: ESAC (Essen Associative Code) Database: FINK
!!!AMT: simple quadruple
!!!AIN: vox
!!!EED: Helmut Schaffrath
!!!EEV: 1.0
*-
